X:165
T:Lady Doll St. Clair's reel. Ru2.165
%%VWML:RutherfordVol2-2249-p83-0
F:http://www.vwml.org/record/RutherfordVol2/2249/p83
Z:vmp.Ruairidh Greig 2015 www.village-music-project.org.uk
M:C|
L:1/8
R:Reel
Q:1/4=120
K:Amix
B|A/A/A cA dBcA|Bg2d BGGB|A/A/A cA dBcA|Ba2e cA A:|
|:g|(a/g/f/e/) ca eaca|Bg2d BGGg|1(a/g/f/e/) ca eaca|Ba2e cA Ag:|2
(a/g/f) (g/f/e) (f/e/d) (e/d/c)|Ba2e cA A||
W:The first Cu. cast off two Cu. .| Cast up
W:Again :| Cross over two Cu. .|. Lead up to ye
W:Top foot it & cast off :| Turn Corners with yr.
W:Right Hands & your Partner with your Left
W:Hands .||. Lead outsides & turn your Partner :|
T:Whisle o'er the Lave ont. Ru2.166
B:RUTHERFORD Complete Collection of 200 Country Dances Vol.2; 1759.
Z:vmp.Ruairidh Greig 2015 www.village-music-project.org.uk
M:C|
L:1/8
Q:1/4=120
K:G
G>DG>B "tr"A>G B2|d>eBg "tr"A>GE2|G>DEG "tr"B>AB<g|B<G B<G"tr"A2G2:|
d>e g>d "tr"e>dB2|d>e B>g "tr"AG E2|g>b e>g d>e B>g|B<G B>G "tr"A2G2:|
G>B A>c B>G A>c|B>G A>E G>B, "tr"A,2|G,>B,A,>C B,>D G>B|AD B>G "tr"A2G2:|"
GB/c/ d>g e>dB>G|c>AB>G "tr"A>GE2|BA/B/ cB/c/ de/f/ gf/e/|d>G B>G "tr"A2G2:|
W:Hey Contrary sides .| Then on your own-sides :| Cross
W:over two Cu. .|. Lead up to the Top & cast off :||: foot
W:it Corners & turn .||. Lead outsides & turn :|
